symbolic/24x24/apps/wpscrackgui.svg

<svg xmlns="http://www.w3.org/2000/svg" width="24" height="24" version="1">
 <path style="opacity:0.2" d="M 12.039111,5.500094 C 8.2461536,5.500094 4.8317532,6.8125707 2,8.8478267 L 12.039111,19.5 21.999616,8.8100166 C 19.178887,6.7972132 15.80264,5.5001874 12.039111,5.5001874 Z"/>
 <path style="fill:#4f4f4f" d="M 12.039111,5 C 8.2461536,5 4.8317532,6.3124767 2,8.3477327 L 12.039111,18.999906 21.999616,8.3099226 C 19.178887,6.2971192 15.80264,5.0000934 12.039111,5.0000934 Z"/>
 <path style="opacity:0.2" transform="matrix(0.47930826,0,0,0.46679113,-64.641583,-110.29844)" d="m 159.9,252.99 c -6.3037,0 -12.154,2.0674 -16.853,5.5589 l 16.941,18.441 16.765,-18.441 c -4.71,-3.49 -10.56,-5.56 -16.86,-5.56 z"/>
 <path style="fill:#797979" d="m 11.999808,7.7969192 c -3.0214152,0 -5.8255123,0.9650439 -8.0777818,2.5948448 L 12.041987,18.99986 20.07759,10.391298 C 17.825321,8.7617298 15.021367,7.7968725 11.999808,7.7968725 Z"/>
 <path style="opacity:0.2" transform="matrix(0.47930826,0,0,0.46679113,-64.641583,-110.29844)" d="m 159.9,258.99 c -4.7278,0 -9.1156,1.5505 -12.64,4.1692 l 12.706,13.831 12.574,-13.831 c -3.524,-2.6186 -7.9119,-4.1692 -12.64,-4.1692 z"/>
 <path style="fill:#e4e4e4" d="m 11.999808,10.597666 c -2.2660733,0 -4.3691821,0.72376 -6.0584561,1.946145 L 12.031442,19 18.058264,12.543811 c -1.689082,-1.222525 -3.792286,-1.946052 -6.058456,-1.946052 z"/>
 <path style="opacity:0.1;fill:#ffffff" d="M 12.039111,5 C 8.2461536,5 4.8317532,6.3125234 2,8.3477793 L 2.2696109,8.634053 C 5.0484485,6.7057389 8.3635362,5.4667818 12.039351,5.4667818 c 3.647104,0 6.925525,1.2241131 9.692092,3.1307682 L 21.999856,8.3095398 C 19.178168,6.2972033 15.8024,5.0001775 12.038392,5.0001775 Z"/>
 <path style="opacity:0.1;fill:#ffffff" d="m 12.000287,7.7964523 c -3.0214149,0 -5.8259913,0.9657909 -8.0782608,2.5956387 l 0.2705455,0.286274 C 6.3979169,9.1620872 9.0963745,8.2632808 12.000024,8.2632808 c 2.904847,0 5.602634,0.8997399 7.808411,2.4169042 l 0.268892,-0.288477 C 17.825536,8.7616738 15.022062,7.7958829 12.000503,7.7958829 Z"/>
 <path style="opacity:0.1;fill:#ffffff" d="m 12.000287,10.597199 c -2.266073,0 -4.3696611,0.724133 -6.0589351,1.946472 l 0.2705455,0.286275 c 1.6415829,-1.109376 3.6396273,-1.765965 5.7881266,-1.765965 2.149506,0 4.147167,0.657522 5.789085,1.767785 l 0.268892,-0.28801 c -1.688603,-1.222527 -3.791328,-1.94652 -6.057498,-1.94652 z"/>
 <circle style="opacity:0.2" cx="15.5" cy="17" r="5.5"/>
 <circle style="fill:#5565cc" cx="15.5" cy="16.5" r="5.5"/>
 <path style="fill:#ffffff" d="M 13.5 14 A 2.5 2.5 0 0 0 11 16.5 A 2.5 2.5 0 0 0 13.5 19 A 2.5 2.5 0 0 0 16 16.5 A 2.5 2.5 0 0 0 13.5 14 z M 13.5 15 A 1.5 1.5 0 0 1 15 16.5 A 1.5 1.5 0 0 1 13.5 18 A 1.5 1.5 0 0 1 12 16.5 A 1.5 1.5 0 0 1 13.5 15 z"/>
 <rect style="fill:#ffffff" width="4.5" height="1" x="15.5" y="16"/>
 <rect style="fill:#ffffff" width="1" height="1" x="18" y="17"/>
</svg>

<svg xmlns="http://www.w3.org/2000/svg" width="24" height="24" version="1"><path style="opacity:.2" d="M12.04 5.5C8.245 5.5 4.831 6.813 2 8.848L12.04 19.5 22 8.81c-2.821-2.013-6.197-3.31-9.96-3.31z"/><path style="fill:#4f4f4f" d="M12.04 5C8.245 5 4.831 6.312 2 8.348L12.04 19 22 8.31C19.179 6.297 15.803 5 12.04 5z"/><path style="opacity:.2" transform="matrix(.4793 0 0 .4668 -64.642 -110.298)" d="M159.9 252.99a28.199 28.199 0 0 0-16.853 5.559l16.941 18.44 16.765-18.44a28.264 28.264 0 0 0-16.86-5.56z"/><path style="fill:#797979" d="M12 7.797c-3.022 0-5.826.965-8.078 2.595L12.042 19l8.036-8.609A13.758 13.758 0 0 0 12 7.797z"/><path style="opacity:.2" transform="matrix(.4793 0 0 .4668 -64.642 -110.298)" d="M159.9 258.99a21.15 21.15 0 0 0-12.64 4.17l12.706 13.83 12.574-13.83a21.149 21.149 0 0 0-12.64-4.17z"/><path style="fill:#e4e4e4" d="M12 10.598c-2.266 0-4.37.723-6.059 1.946L12.031 19l6.027-6.456A10.317 10.317 0 0 0 12 10.598z"/><path style="opacity:.1;fill:#fff" d="M12.04 5C8.245 5 4.831 6.313 2 8.348l.27.286c2.778-1.928 6.094-3.167 9.77-3.167 3.646 0 6.925 1.224 9.691 3.13L22 8.31C19.178 6.297 15.802 5 12.038 5z"/><path style="opacity:.1;fill:#fff" d="M12 7.796a13.76 13.76 0 0 0-8.078 2.596l.27.286A13.758 13.758 0 0 1 12 8.263c2.905 0 5.603.9 7.808 2.417l.27-.288A13.752 13.752 0 0 0 12 7.796z"/><path style="opacity:.1;fill:#fff" d="M12 10.597c-2.266 0-4.37.724-6.059 1.947l.27.286A10.32 10.32 0 0 1 12 11.064c2.15 0 4.147.658 5.79 1.768l.268-.288a10.313 10.313 0 0 0-6.057-1.947z"/><circle style="opacity:.2" cx="15.5" cy="17" r="5.5"/><circle style="fill:#5565cc" cx="15.5" cy="16.5" r="5.5"/><path style="fill:#fff" d="M13.5 14a2.5 2.5 0 0 0-2.5 2.5 2.5 2.5 0 0 0 2.5 2.5 2.5 2.5 0 0 0 2.5-2.5 2.5 2.5 0 0 0-2.5-2.5zm0 1a1.5 1.5 0 0 1 1.5 1.5 1.5 1.5 0 0 1-1.5 1.5 1.5 1.5 0 0 1-1.5-1.5 1.5 1.5 0 0 1 1.5-1.5z"/><path style="fill:#fff" d="M15.5 16H20v1h-4.5zM18 17h1v1h-1z"/></svg>
